X:1
T: Lady Mary Montague's Reel
C:J. Macdonald
R:Reel
Q: 232
K:D
M:4/4
L:1/8
|:B|AF dF A2 FA|BG AF GE EG|FA DF GB Ed|ce Ac dD DB|
AF dF A2 FA|BG AF GE EG|FA DF GB Ed|ce Ac dD Dg|
fd ad f2 df|gf ed ce eg|fd ad fa df|gb ag fd dg|
fd ad f2 df|gf ed ce A=c|B2 GB ce Ac|df eg fd d:|
